!!!!SEGMENT: pl-wnifc--6730-n--012_sowinski-wojciech--chants-religieux-de-la-pologne-op-93-un-autre-chant-en-ce-jour-christ-ressuscite.krn
!!!cenid: 18xx:4026
!!!COM: Sowiński, Wojciech
!!!COM-rismID: pe30008543
!!!CDT: ~1803-1880/03/05
!!!CNT:
!!!GTL: Chants religieux de la Pologne op. 93
!!!OTL: Un autre Chant/En ce jour Christ ressuscité
!!!OMV: 012
!!!PDT: 1830
!!!AGN:
!!!SMS-siglum: PL-Wnifc
!!!SMS-shelfmark: 6730/n
!!!SMS-shelfwork: 001-012 G
!!!SMS-variant:
!!!SMS-altvar:
!!!NIFC-rismSourceID: 1001138221
!!!NIFC-rismChildID: 1001138234
!!!NIFC-islandoraID: nifc:213350
!!!URL-pdf-islandora: https://repozytorium.nifc.pl/islandora/object/nifc%3A213350/datastream/PDF/view
!!!URL-scan: https://polish.musicsources.pl/pl/lokalizacje/galeria/druki-muzyczne/16913 @EN{Scan on Polish Music Sources Website} @PL{Skany w portalu Dziedzictwo Muzyki Polskiej w otwartym dostępie}
!!!IIIF:
!!!ONB-nifc: UWAGA: str. 47-48
!!!AIN: 2 organ 2 soprn
!!!key: C
**kern	**kern	**dynam	**kern	**text	**dynam	**kern	**text	**dynam
*part4	*part3	*part3	*part2	*part2	*part2	*part1	*part1	*part1
*staff4	*staff3	*	*staff2	*staff2	*	*staff1	*staff1	*
*I"Organo	*I"ORGUE.	*	*I"2o. DESSUS.	*	*	*I"1er. DESSUS.	*	*
*	*I'org	*	*I'2 D	*	*	*I'1 D	*	*
*Iorgan	*Iorgan	*	*Isoprn	*	*	*Isoprn	*	*
*ICklav	*ICklav	*	*ICvox	*	*	*ICvox	*	*
*clefF4	*clefG2	*	*clefG2	*	*	*clefG2	*	*
*k[]	*k[]	*	*k[]	*	*	*k[]	*	*
*C:	*C:	*	*C:	*	*	*C:	*	*
*M4/4	*M4/4	*	*M4/4	*	*	*M4/4	*	*
*met(c)	*met(c)	*	*met(c)	*	*	*met(c)	*	*
=1	=1	=1	=1	=1	=1	=1	=1	=1
!	!LO:TX:a:t=Allegro.	!	!	!	!	!LO:TX:a:t=Allegro.	!	!
4C\	4e/ 4g 4cc	.	1r	.	.	1r	.	.
4E\	8.e/L 8.g 8.cc	.	.	.	.	.	.	.
.	16e/Jk 16g 16cc	.	.	.	.	.	.	.
4G\	4e/ 4g 4cc	.	.	.	.	.	.	.
4E\	8e/L 8g 8b	.	.	.	.	.	.	.
.	8cc/J	.	.	.	.	.	.	.
=2	=2	=2	=2	=2	=2	=2	=2	=2
*^	*	*	*	*	*	*	*	*
4C/	2C\	4e/ 4g 4dd	.	1r	.	.	1r	.	.
8E/L	.	8e/L 8g 8cc	.	.	.	.	.	.	.
8G/J	.	8b/J	.	.	.	.	.	.	.
[>4c/	2ryy	4f/ 4a	.	.	.	.	.	.	.
4C;\ 4c]	.	4e;/ 4g	.	.	.	.	.	.	.
*v	*v	*	*	*	*	*	*	*	*
=3	=3	=3	=3	=3	=3	=3	=3	=3
4C\	4e/ 4g 4cc	f	4e/	En	.	4cc\	En	.
4E\	4e/ 4g 4cc	.	4e/	ce	.	4cc\	ce	.
4G\	4e/ 4g 4cc	.	4e/	jour	.	4cc\	jour	.
4E\	8e/L 8g 8b	.	(8g/L	Christ	.	(8b\L	Christ	.
.	8cc/J	.	8e/J)	.	.	8cc\J)	.	.
=4	=4	=4	=4	=4	=4	=4	=4	=4
*	*^	*	*	*	*	*	*	*
4C\	4f/ 4g 4dd	2ryy	.	4f/	res-	.	4dd\	res-	.
4E\	8e/L 8g 8cc	.	.	(8e/L	-sus-	.	(8cc\L	sus-	.
.	8b/J	.	.	8g/J)	.	.	8b\J)	.	.
4G\	8a/L	4f\	.	4f/	-ci-	.	4a/	-ci-	.
.	8b/J	.	.	.	.	.	.	.	.
4C;\ 4c	4cc;/	4e\	.	4e;/	-té	.	4g;/	-té	.
!LO:LB:g=original	!LO:LB:g=original	!LO:LB:g=original	!	!LO:LB:g=original	!	!	!LO:LB:g=original	!	!
*	*v	*v	*	*	*	*	*	*	*
=5	=5	=5	=5	=5	=5	=5	=5	=5
4C\ 4c	4e/ 4g	.	4e/	Va	.	4g/	Va	.
8F\L	8f/L 8a	.	(8f/L	re-	.	(8a/L	re-	.
8D\J	8b/J	.	8d/J)	.	.	8b/J)	.	.
4C\	4e/ 4cc	.	4e/	-gner	.	4cc\	-gner	.
4E\	4g/ 4b	.	4g/	dans	.	4b\	dans	.
=6	=6	=6	=6	=6	=6	=6	=6	=6
*	*^	*	*	*	*	*	*	*
4F\	4a/	2c\	.	4f/	l'e-	.	4a/	l'e-	.
4E\	4g/	.	.	4e/	-ter-	.	4g/	-ter-	.
4GG/ 4G	4d/ 4f	2ryy	.	4d/	-ni-	.	4f/	-ni-	.
4C;/	4c;/ 4e	.	.	4c;/	-té	.	4e;/	-té	.
*	*v	*v	*	*	*	*	*	*	*
=7||	=7||	=7||	=7||	=7||	=7||	=7||	=7||	=7||
!	!	!	!	!	!LO:DY:a	!	!	!LO:DY:a
4EE/ 4E	4G#X/ 4B 4e	p	4e/	Tri-	p	4e/	Tri-	p
4D/	4G#/ 4B 4e	.	4d/	-om-	.	4e/	-om-	.
4C/	4A/ 4e	.	4c/	-phant	.	4e/	-phant	.
4BB/	4d/ 4gn	.	4B/	il	.	4g/	il	.
=8	=8	=8	=8	=8	=8	=8	=8	=8
*	*^	*	*	*	*	*	*	*
4AA/	4f/	2c\	.	4c/	re-	.	4f/	re-	.
4GG/	4e/	.	.	8c/	-tourne	.	8e/	-tourne	.
.	.	.	.	8c/	an	.	8e/	au	.
4FF/	4a/	2c\	.	(4f/	ciel	.	(4a/	ciel	.
4EE/	4g/	.	.	4e/)	.	.	4g/)	.	.
!LO:LB:g=original	!LO:LB:g=original	!LO:LB:g=original	!	!LO:LB:g=original	!	!	!LO:LB:g=original	!	!
*	*v	*v	*	*	*	*	*	*	*
=9	=9	=9	=9	=9	=9	=9	=9	=9
4EE/ 4E	2G#X/ 2B 2e	p	4e/	Cé-	.	4e/	Cé-	.
4D/	.	.	4d/	-lé-	.	4e/	-lé-	.
4C/	4A/ 4e	.	4c/	-brons	.	4e/	-brons	.
4BB/	4d/ 4gn	.	4B/	son	.	4g/	son	.
=10	=10	=10	=10	=10	=10	=10	=10	=10
*	*^	*	*	*	*	*	*	*
!	!	!	!	!	!	!LO:DY:a	!	!	!LO:DY:a
4AA/	4f/	2c\	.	4A/	regne	<	4f/	regne	<
4GG/	4e/	.	.	8c/	im-	.	8e/	im-	.
.	.	.	.	8c/	-mor-	.	8e/	-mor-	.
4FF/	4a/	2c\	.	(4f/	-tel	[	(4a/	-tel	[
4EE/	4g/	.	.	4e/)	.	.	4g/)	.	.
*	*v	*v	*	*	*	*	*	*	*
=11	=11	=11	=11	=11	=11	=11	=11	=11
!	!	!	!	!	!LO:DY:a	!LO:TX:a:t=con allegrezza.	!	!LO:DY:a
2CC/ 2C	4e/ 4g 4cc	f	4e/	al-	f	4cc\	al-	f
.	8f/L 8dd	.	(8f/L	-le-	.	(8dd\L	-le-	.
.	8g/J 8ee	.	8g/J)	.	.	8ee\J)	.	.
4.GG^/ 4.G	4.f^/ 4.dd	.	(4.f/	-lu-	.	(4.dd\	-lu-	.
8GG/ 8G	8d/ 8b	.	8d/)	.	.	8b\)	.	.
=12	=12	=12	=12	=12	=12	=12	=12	=12
2CC;</ 2C	2e;</ 2cc	.	1e;	-ia.	.	1cc;	-ia.	.
4GG/ 4G	2r	.	.	.	.	.	.	.
4EE/ 4E	.	.	.	.	.	.	.	.
!LO:PB:g=original	!LO:PB:g=original	!	!LO:PB:g=original	!	!	!LO:PB:g=original	!	!
=13	=13	=13	=13	=13	=13	=13	=13	=13
4.CC/ 4.C	4r	f	1ryy	.	.	1ryy	.	.
.	2e^/ 2cc	.	.	.	.	.	.	.
8C/	.	.	.	.	.	.	.	.
8c'\L	.	.	.	.	.	.	.	.
8B'\	.	.	.	.	.	.	.	.
8A'\	4e/ 4cc	.	.	.	.	.	.	.
8G'\J	.	.	.	.	.	.	.	.
=14	=14	=14	=14	=14	=14	=14	=14	=14
8F#X'\L	2.d/ 2.a 2.cc	.	1ryy	.	.	1ryy	.	.
8G'\	.	.	.	.	.	.	.	.
8A'\	.	.	.	.	.	.	.	.
8G'\J	.	.	.	.	.	.	.	.
8F#'\L	.	.	.	.	.	.	.	.
8D'\	.	.	.	.	.	.	.	.
8E'\	4d/ 4a 4cc	.	.	.	.	.	.	.
8F#'\J	.	.	.	.	.	.	.	.
=15	=15	=15	=15	=15	=15	=15	=15	=15
4.GG\ 4.G	4d/ 4g 4b	.	1ryy	.	.	1ryy	.	.
.	2.g^/ 2.b	.	.	.	.	.	.	.
8G\	.	.	.	.	.	.	.	.
8f\L	.	.	.	.	.	.	.	.
8e\	.	.	.	.	.	.	.	.
8d\	.	.	.	.	.	.	.	.
8c\J	.	.	.	.	.	.	.	.
=16	=16	=16	=16	=16	=16	=16	=16	=16
8B\L	4r	.	1ryy	.	.	1ryy	.	.
8c\	.	.	.	.	.	.	.	.
8d\	2g\ 2dd 2ff	.	.	.	.	.	.	.
8c\J	.	.	.	.	.	.	.	.
8B\L	.	.	.	.	.	.	.	.
8G\	.	.	.	.	.	.	.	.
8A\	4g\ 4dd 4ff	.	.	.	.	.	.	.
8B\J	.	.	.	.	.	.	.	.
=17	=17	=17	=17	=17	=17	=17	=17	=17
4C\ 4c	4g\ 4cc 4ee	.	1ryy	.	.	1ryy	.	.
4r	4r	.	.	.	.	.	.	.
4CC/ 4C	4cc\ 4ee 4ccc	sf	.	.	.	.	.	.
4r	4r	.	.	.	.	.	.	.
!LO:LB:g=original	!LO:LB:g=original	!	!LO:LB:g=original	!	!	!LO:LB:g=original	!	!
=18	=18	=18	=18	=18	=18	=18	=18	=18
!	!	!	!	!	!LO:DY:a	!	!	!LO:DY:a
4C\	4e/ 4g 4cc	f	4e/	O	f	4cc\	O	f
4E\	4e/ 4g 4cc	.	4e/	Jé-	.	4cc\	Jé-	.
4G\	4e/ 4g 4cc	.	4e/	-sus	.	4cc\	-sus	.
4E\	8e/L 8g 8b	.	8g/L	fais	.	(8b\L	fais	.
.	8cc/J	.	8e/J	.	.	8cc\J)	.	.
=19	=19	=19	=19	=19	=19	=19	=19	=19
*	*^	*	*	*	*	*	*	*
4C\	4f/ 4g 4dd	2ryy	.	4f/	nous	.	4dd\	nous	.
4E\	8e/L 8g 8cc	.	.	8e/L	mé-	.	(8cc\L	mé-	.
.	8b/J	.	.	8g/J	.	.	8b\J)	.	.
4G\	8a/L	4f\	.	4f/	-ri-	.	4a/	-ri-	.
.	8b/J	.	.	.	.	.	.	.	.
4C;\ 4c	4cc;/	4e\	.	4e;/	-ter	.	4g;/	-ter	.
*	*v	*v	*	*	*	*	*	*	*
=20	=20	=20	=20	=20	=20	=20	=20	=20
4C\ 4c	4e/ 4g	.	4e/	Le	.	4g/	Le	.
8F\L	8f/L 8a	.	8f/L	bon-	.	(8a/L	bon-	.
8D\J	8b/J	.	8d/J	.	.	8b/J)	.	.
4C\	4e/ 4cc	.	4e/	-heur	.	4cc\	-heur	.
4E\	4g/ 4b	.	4g/	de	.	4b\	de	.
=21	=21	=21	=21	=21	=21	=21	=21	=21
*	*^	*	*	*	*	*	*	*
4F\	4a/	2c\	.	4f/	te	.	4a/	te	.
4E\	4g/	.	.	4e/	con-	.	4g/	con-	.
4GG\ 4G	4d/ 4f	2ryy	.	4d/	-tem-	.	4f/	-tem-	.
4C;\	4c;/ 4e	.	.	4c;/	-pler	.	4e;/	-pler	.
*	*v	*v	*	*	*	*	*	*	*
=22||	=22||	=22||	=22||	=22||	=22||	=22||	=22||	=22||
!	!	!	!	!	!	!	!	!LO:DY:a
4EE/ 4E	4G#X/ 4B 4e	.	4e/	Que	.	4e/	Que	p
4D/	4G#/ 4B 4e	.	4d/	ton	.	4e/	ton	.
4C/	4A/ 4e	.	4c/	nom	.	4e/	nom	.
4BB/	4d/ 4gn	.	4B/	par	.	4g/	par	.
!LO:LB:g=original	!LO:LB:g=original	!	!LO:LB:g=original	!	!	!LO:LB:g=original	!	!
=23	=23	=23	=23	=23	=23	=23	=23	=23
*	*^	*	*	*	*	*	*	*
!	!	!	!	!	!	!LO:DY:a	!	!	!LO:DY:a
4AA/	4f/	2c\	<	4c/	nous	<	4f/	nous	<
4GG/	4e/	.	.	8c/	soit	.	8e/	soit	.
.	.	.	.	8c/	lou-	.	8e/	lou-	.
4FF/	4a/	2c\	[	(4f/	-é	[	(4a/	-é	[
4EE/	4g/	.	.	4e/)	.	.	4g/)	.	.
*	*v	*v	*	*	*	*	*	*	*
=24	=24	=24	=24	=24	=24	=24	=24	=24
!	!	!	!	!	!LO:DY:a	!	!	!LO:DY:a
4EE/ 4E	2G#X/ 2B 2e	p	4e/	Dans	p	4e/	Dans	p
4D/	.	.	4d/	le	.	4e/	le	.
4C/	4A/ 4e	.	4c/	temps	.	4e/	temps	.
4BB/	4d/ 4gn	.	4B/	et	.	4g/	et	.
=25	=25	=25	=25	=25	=25	=25	=25	=25
*	*^	*	*	*	*	*	*	*
!	!	!	!	!	!	!	!	!	!LO:DY:a
4AA/	4f/	2c\	.	4A/	l'é-	.	4f/	l'é-	<
4GG/	4e/	.	.	8c/	-ter-	.	8e/	-ter-	.
.	.	.	.	8c/	-ni-	.	8e/	-ni-	.
4FF/	4a/	2c\	.	(4f/	-té	.	(4a/	-té	[
4EE/	4g/	.	.	4e/)	.	.	4g/)	.	.
*	*v	*v	*	*	*	*	*	*	*
=26	=26	=26	=26	=26	=26	=26	=26	=26
!	!	!	!	!	!LO:DY:a	!	!	!LO:DY:a
2CC/ 2C	4e/ 4g 4cc	f	4e/	al-	f	4cc\	al-	f
!	!	!	!	!	!	!LO:TX:a:t=con allegrezza.	!	!
.	8f/L 8dd	.	(8f/L	-le-	.	(8dd\L	-le-	.
.	8g/J 8ee	.	8g/J)	.	.	8ee\J)	.	.
4.GG^/ 4.G	4.f/ 4.dd	.	(4.f/	-lu-	.	(4.dd\	-lu-	.
8GG/ 8G	8d/ 8b	.	8d/)	.	.	8b\)	.	.
=27	=27	=27	=27	=27	=27	=27	=27	=27
2CC;</ 2C	2e;</ 2cc	.	1e;	-ia.	.	1cc;	-ia.	.
4GG/ 4G	2r	.	.	.	.	.	.	.
4EE/ 4E	.	.	.	.	.	.	.	.
!LO:LB:g=original	!LO:LB:g=original	!	!LO:LB:g=original	!	!	!LO:LB:g=original	!	!
=28	=28	=28	=28	=28	=28	=28	=28	=28
4.CC/ 4.C	4r	f	1ryy	.	.	1ryy	.	.
.	2e^/ 2cc	.	.	.	.	.	.	.
8C\	.	.	.	.	.	.	.	.
8c'\L	.	.	.	.	.	.	.	.
8B'\	.	.	.	.	.	.	.	.
8A'\	4e/ 4cc	.	.	.	.	.	.	.
8G'\J	.	.	.	.	.	.	.	.
=29	=29	=29	=29	=29	=29	=29	=29	=29
8F#X'\L	2.d/ 2.a 2.cc	.	1ryy	.	.	1ryy	.	.
8G'\	.	.	.	.	.	.	.	.
8A'\	.	.	.	.	.	.	.	.
8G'\J	.	.	.	.	.	.	.	.
8F#'\L	.	.	.	.	.	.	.	.
8D'\	.	.	.	.	.	.	.	.
8E'\	4d/ 4a 4cc	.	.	.	.	.	.	.
8F#'\J	.	.	.	.	.	.	.	.
=30	=30	=30	=30	=30	=30	=30	=30	=30
4.GG\ 4.G	4d/ 4g 4b	.	1ryy	.	.	1ryy	.	.
.	2.g^/ 2.b	.	.	.	.	.	.	.
8G\	.	.	.	.	.	.	.	.
8f\L	.	.	.	.	.	.	.	.
8e\	.	.	.	.	.	.	.	.
8d\	.	.	.	.	.	.	.	.
8c\J	.	.	.	.	.	.	.	.
=31	=31	=31	=31	=31	=31	=31	=31	=31
8B\L	4r	.	1ryy	.	.	1ryy	.	.
8c\	.	.	.	.	.	.	.	.
8d\	2g^\ 2dd 2ff	.	.	.	.	.	.	.
8c\J	.	.	.	.	.	.	.	.
8B\L	.	.	.	.	.	.	.	.
8G\	.	.	.	.	.	.	.	.
8A\	4g\ 4dd 4ff	.	.	.	.	.	.	.
8B\J	.	.	.	.	.	.	.	.
=32	=32	=32	=32	=32	=32	=32	=32	=32
4C\ 4c	4g\ 4cc 4ee	.	1ryy	.	.	1ryy	.	.
4r	4r	.	.	.	.	.	.	.
4CC/ 4C	4cc\ 4ee 4ccc	sf	.	.	.	.	.	.
4r	4r	.	.	.	.	.	.	.
==	==	==	==	==	==	==	==	==
*-	*-	*-	*-	*-	*-	*-	*-	*-
!!!RDF**kern: > = above
!!!RDF**kern: < = below
!!!system-decoration: [(s1,s2)][(s3,s4)]
!!!ENC: Andrzej Gręziak
!!!END: 2022-08-09
!!!ENC: Julita Ruszuk
!!!END: 2022-09-05
!!!YEC: Copyright 2022 Narodowy Instytut Fryderyka Chopina (https://polishscores.org)
!!!YEM: License CC-BY-4.0 (https://creativecommons.org/licenses/by/4.0)
